X:1
T:Title
%%score { ( 1 3 ) | ( 2 4 ) }
L:1/8
M:4/4
K:Bb
V:1 treble nm="Grand Piano"
V:3 treble 
V:2 bass 
V:4 bass 
V:1
 z4 z2[Q:1/4=100] F>F | [DB]2 [EB]2 [DB]2 [DF]>[DG] | A2 A2 A2 F>F | c2 c2 c2 G>A | %4
 [DB]2 [EB]2 [DB]2 F>F | d2 d2 d2 e>d | [Ec]2 [Ec]2 [EG]2 A>G | F2 F2 [FB]2 [Gc][Ge] | %8
[M:7/8] [Fd]2 [Ec]2 [DB]3 |[M:1/4][K:bass] D,>E, |[M:4/4] z2[K:treble] d2 z2 e2 | %11
 z2 d>d d2[K:bass] D,>F, | z2[K:treble] d2 z2 e2 | z2 d>d d2 B,>A, | z2 e2 z2 e2 | %15
 z2 d>d d2 G,>B, | z2 f2 z2 =e2 |[M:3/4] z2 e>e e2 |[M:1/4] D>E | %19
[M:4/4] F2- [F,DF]2 G2- [=E,_DG]2 | F6[K:treble] z2 | B2- [FB]2 c2- [Gc]2 | %22
[M:3/4] d2- [Gd-]2 [^Fd]2 |[M:1/4] d>d |[M:4/4] [Ee]2 [Ee]2 [EG]2 [Gc]>[Ge] | d2 d2 F2 [FB][Fd] | %26
 f2- [Af]2 z2 E2 |[M:3/4] B6 |] %28
V:2
 z4 z2 F,>F, | [B,,F,]2 [B,,G,]2 [B,,F,]2 [B,,B,]>[B,,B,] | %2
 [F,CE]2 [F,CE]2 [F,CE]2 [F,A,E]>[F,A,E] | [F,A,E]2 [F,B,E]2 [F,A,E]2 [F,B,E]>[F,CE] | %4
 [B,,B,]2 [B,,G,]2 [B,,F,]2 [F,A,]>[F,A,] | [B,F]2 [A,C^F]2 [G,=B,G]2 [G,B,=F]>[G,B,F] | %6
 [C,G,]2 [C,G,]2 [C,C]2 [=E,B,_D]>[E,B,D] | [F,B,D]2 [F,B,D]2 [D,B,]2 [E,B,][C,B,] | %8
[M:7/8] [F,B,]2 [F,A,]2 [B,,B,]3 |[M:1/4] z2 |[M:4/4] z2[K:treble] [FB]2 z2 [EB]2 | %11
 z2 [FB]>[FB] [FB]2 z2 | z2 [FB]2 z2 [FA]2 | z2 [FB]>[FB] [FB]2 z2 | z2 [GB]2 z2 [GB]2 | %15
 z2 [FB]>[FB] [FB]2 z2 | z2 [Fc]2 z2 [GB]2 |[M:3/4] z2 [FA]>[FA] [FA]2 |[M:1/4] B,>C | %19
[M:4/4][K:bass] B,,2 B,,2 [B,,=E,]2 B,,2 | B,,2 B,,2 B,,2 B,>D | [B,,F,]2 [D,B,]2 [E,B,]2 [E,G,]2 | %22
[M:3/4] [D,A,]2 [G,B,]2 [D,A,]2 |[M:1/4][K:treble] [G,=B,F]>[G,B,F] | %24
[M:4/4][K:bass] [C,C]2 [C,G,]2 [C,C]2 [E,C]>[C,C] | [F,B,F]2 [F,B,F]2 [D,B,]2 [D,B,][B,,B,] | %26
 [F,C]2 [F,C]2 [F,CE]2 [F,C]2 |[M:3/4] z2 G,2 F,2 |] %28
V:3
 x8 | x8 | x8 | x8 | x8 | x8 | x8 | x8 |[M:7/8] x7 |[M:1/4][K:bass] x2 |[M:4/4] F,4[K:treble] G,4 | %11
 F,6[K:bass] z2 | B,4[K:treble] C4 | B,6 z2 | G,4 B,4 | F,6 z2 | A,4 G,4 |[M:3/4] C6 |[M:1/4] x2 | %19
[M:4/4] [B,D]2 z2 _D2 z2 | [F,D]2 [G,D]2 [F,D]2[K:treble] D>F | D2 z2 G2 z2 |[M:3/4] ^F2 z2 z2 | %23
[M:1/4] x2 |[M:4/4] x8 | x8 | A2 z2 A4 |[M:3/4] [B,D]2 E2 D2 |] %28
V:4
 x8 | x8 | x8 | x8 | x8 | x8 | x8 | x8 |[M:7/8] x7 |[M:1/4] x2 |[M:4/4] x2[K:treble] x6 | x8 | x8 | %13
 x8 | x8 | x8 | x8 |[M:3/4] x6 |[M:1/4] x2 |[M:4/4][K:bass] x8 | x8 | x8 |[M:3/4] x6 | %23
[M:1/4][K:treble] x2 |[M:4/4][K:bass] x8 | x8 | x8 |[M:3/4] B,,6 |] %28

